assets/img/portfolio/java-training/hangman.svg

<?xml version="1.0" encoding="UTF-8" standalone="no"?>
<svg
   xmlns:dc="http://purl.org/dc/elements/1.1/"
   xmlns:cc="http://creativecommons.org/ns#"
   xmlns:rdf="http://www.w3.org/1999/02/22-rdf-syntax-ns#"
   xmlns:svg="http://www.w3.org/2000/svg"
   xmlns="http://www.w3.org/2000/svg"
   xmlns:sodipodi="http://sodipodi.sourceforge.net/DTD/sodipodi-0.dtd"
   xmlns:inkscape="http://www.inkscape.org/namespaces/inkscape"
   version="1.1"
   x="0px"
   y="0px"
   viewBox="0 0 90 112.5"
   enable-background="new 0 0 90 90"
   xml:space="preserve"
   id="svg10"
   sodipodi:docname="hangman.svg"
   inkscape:version="0.92.3 (2405546, 2018-03-11)"><metadata
     id="metadata16"><rdf:RDF><cc:Work
         rdf:about=""><dc:format>image/svg+xml</dc:format><dc:type
           rdf:resource="http://purl.org/dc/dcmitype/StillImage" /><dc:title></dc:title></cc:Work></rdf:RDF></metadata><defs
     id="defs14" /><sodipodi:namedview
     pagecolor="#ffffff"
     bordercolor="#666666"
     borderopacity="1"
     objecttolerance="10"
     gridtolerance="10"
     guidetolerance="10"
     inkscape:pageopacity="0"
     inkscape:pageshadow="2"
     inkscape:window-width="1600"
     inkscape:window-height="837"
     id="namedview12"
     showgrid="false"
     inkscape:zoom="5.6377778"
     inkscape:cx="45"
     inkscape:cy="56.25"
     inkscape:window-x="-8"
     inkscape:window-y="-8"
     inkscape:window-maximized="1"
     inkscape:current-layer="svg10" /><g
     id="g4"><path
       d="M63.543,27.88l-4.127-0.002c0.75-0.769,1.218-1.816,1.218-2.975c0-1.107-0.434-2.108-1.126-2.866V9.665h2.168   c1.979,0,3.583-1.604,3.583-3.582c0-1.978-1.604-3.583-3.583-3.583H25.062c-1.978,0-3.583,1.604-3.583,3.583v77.835   c0,1.979,1.604,3.582,3.583,3.582s3.582-1.603,3.582-3.582V25.245l15.068-15.068c0.15-0.15,0.264-0.326,0.34-0.512H58.09v11.341   c-0.527-0.232-1.106-0.367-1.721-0.367c-2.353,0-4.262,1.909-4.262,4.265c0,1.188,0.49,2.262,1.276,3.035   c-2.654,0.313-4.305,2.614-4.305,5.469v13.088c0,2.544,3.361,2.544,3.361,0V33.758h1.07l-0.006,34.564   c0,1.319,1.072,2.39,2.389,2.39c1.321,0,2.391-1.07,2.391-2.39l0.005-20.048h1.062l-0.004,20.048c0,1.319,1.07,2.39,2.389,2.39   s2.39-1.07,2.39-2.39l0.008-34.564h1.051v12.737c0,2.562,3.343,2.562,3.337,0V33.484C68.521,30.653,66.855,27.88,63.543,27.88z    M28.644,20.801V9.665h11.135L28.644,20.801z"
       id="path2" /></g></svg>

<?xml version="1.0" encoding="UTF-8" standalone="no"?>
<svg
   xmlns:dc="http://purl.org/dc/elements/1.1/"
   xmlns:cc="http://creativecommons.org/ns#"
   xmlns:rdf="http://www.w3.org/1999/02/22-rdf-syntax-ns#"
   xmlns:svg="http://www.w3.org/2000/svg"
   xmlns="http://www.w3.org/2000/svg"
   xmlns:sodipodi="http://sodipodi.sourceforge.net/DTD/sodipodi-0.dtd"
   xmlns:inkscape="http://www.inkscape.org/namespaces/inkscape"
   version="1.1"
   x="0px"
   y="0px"
   viewBox="0 0 90 112.5"
   enable-background="new 0 0 90 90"
   xml:space="preserve"
   id="svg10"
   sodipodi:docname="hangman.svg"
   inkscape:version="0.92.3 (2405546, 2018-03-11)"><metadata
     id="metadata16"><rdf:RDF><cc:Work
         rdf:about=""><dc:format>image/svg+xml</dc:format><dc:type
           rdf:resource="http://purl.org/dc/dcmitype/StillImage" /><dc:title /></cc:Work></rdf:RDF></metadata><defs
     id="defs14" /><sodipodi:namedview
     pagecolor="#ffffff"
     bordercolor="#666666"
     borderopacity="1"
     objecttolerance="10"
     gridtolerance="10"
     guidetolerance="10"
     inkscape:pageopacity="0"
     inkscape:pageshadow="2"
     inkscape:window-width="1600"
     inkscape:window-height="837"
     id="namedview12"
     showgrid="false"
     inkscape:zoom="7.5757639"
     inkscape:cx="50.261928"
     inkscape:cy="98.203963"
     inkscape:window-x="-8"
     inkscape:window-y="-8"
     inkscape:window-maximized="1"
     inkscape:current-layer="svg10" /><rect
     style="opacity:1;fill:#ebe903;fill-opacity:1;fill-rule:nonzero;stroke:none;stroke-width:0.19400001;stroke-linecap:round;stroke-linejoin:round;stroke-miterlimit:4;stroke-dasharray:none;stroke-dashoffset:261.3973999;stroke-opacity:1;paint-order:markers fill stroke"
     id="rect844"
     width="1.8667604"
     height="12.600633"
     x="56.530338"
     y="8.588254" /><g
     transform="translate(0.36227221,0.57664192)"
     id="g4-8"><path
       inkscape:connector-curvature="0"
       d="M 61.676,9.665 C 63.655,9.665 65.259,8.061 65.259,6.083 65.259,4.105 63.655,2.5 61.676,2.5 H 25.062 C 23.084,2.5 21.479,4.104 21.479,6.083 V 83.918 C 21.479,85.897 23.083,87.5 25.062,87.5 27.041,87.5 28.644,85.897 28.644,83.918 V 25.245 L 43.712,10.177 C 43.862,10.027 43.976,9.851 44.052,9.665 59.228477,9.6434447 50.721336,9.665 61.676,9.665 Z M 28.644,20.801 V 9.665 H 39.779 Z"
       id="path2-6"
       sodipodi:nodetypes="cssssssscscccccc"
       style="fill:#895002;fill-opacity:1" /></g><g
     id="g4"
     transform="translate(-1.1109013,-0.84811336)"><path
       d="M 63.543,27.88 59.416,27.878 C 60.166,27.109 60.634,26.062 60.634,24.903 60.634,23.796 60.2,22.795 59.508,22.037 59.50821,22.047651 58.386621,21.087314 58.09,21.006 57.563,20.774 56.984,20.639 56.369,20.639 54.016,20.639 52.107,22.548 52.107,24.904 52.107,26.092 52.597,27.166 53.383,27.939 50.729,28.252 49.078,30.553 49.078,33.408 V 46.496 C 49.078,49.04 52.439,49.04 52.439,46.496 V 33.758 H 53.509 L 53.503,68.322 C 53.503,69.641 54.575,70.712 55.892,70.712 57.213,70.712 58.283,69.642 58.283,68.322 L 58.288,48.274 H 59.35 L 59.346,68.322 C 59.346,69.641 60.416,70.712 61.735,70.712 63.054,70.712 64.125,69.642 64.125,68.322 L 64.133,33.758 H 65.184 V 46.495 C 65.184,49.057 68.527,49.057 68.521,46.495 V 33.484 C 68.521,30.653 66.855,27.88 63.543,27.88 Z"
       id="path2"
       inkscape:connector-curvature="0"
       sodipodi:nodetypes="ccsccsscssscccsccccscccscsc" /></g><text
     xml:space="preserve"
     style="font-style:normal;font-variant:normal;font-weight:normal;font-stretch:normal;font-size:13.33333302px;line-height:20px;font-family:Calibri;-inkscape-font-specification:'Calibri, Normal';font-variant-ligatures:normal;font-variant-caps:normal;font-variant-numeric:normal;font-feature-settings:normal;text-align:start;letter-spacing:0px;word-spacing:0px;writing-mode:lr-tb;text-anchor:start;fill:#000000;fill-opacity:1;stroke:none;stroke-width:1px;stroke-linecap:butt;stroke-linejoin:miter;stroke-opacity:1"
     x="7.391994"
     y="100.09201"
     id="text2324"><tspan
       sodipodi:role="line"
       id="tspan2322"
       x="7.391994"
       y="100.09201">H A N G M A N</tspan></text>
<text
     xml:space="preserve"
     style="font-style:normal;font-variant:normal;font-weight:normal;font-stretch:normal;font-size:10.66666698px;line-height:20px;font-family:Calibri;-inkscape-font-specification:'Calibri, Normal';font-variant-ligatures:normal;font-variant-caps:normal;font-variant-numeric:normal;font-feature-settings:normal;text-align:start;letter-spacing:0px;word-spacing:0px;writing-mode:lr-tb;text-anchor:start;fill:#000000;fill-opacity:1;stroke:none;stroke-width:1px;stroke-linecap:butt;stroke-linejoin:miter;stroke-opacity:1"
     x="9.1079912"
     y="101.148"
     id="text2328"><tspan
       sodipodi:role="line"
       id="tspan2326"
       x="9.1079912"
       y="101.148">_  _   _  _   _   _   _</tspan></text>
</svg>
